public/assets/img/cat-glasses.svg

<svg fill="none" height="245" viewBox="0 0 219 245" width="219" xmlns="http://www.w3.org/2000/svg"><path d="m159.802 32c3.2-4.4 4.333-22.5 4.5-31 1.666 6 5.9 19.1 9.5 23.5s16.833 3.5 23 2.5c-4.5 2.5-14.9 8.6-20.5 13s-7 21.1667-7 29c-.5-5.6667-2.1-18.1-4.5-22.5s-12-5.5-16.5-5.5c2.5-1.1667 8.3-4.6 11.5-9z" fill="#fced90" stroke="#232e53" stroke-linecap="round" stroke-linejoin="round" stroke-width="2"/><path d="m.801758 115 9.500042-14.5 1.5 4-8.00004 17z" fill="#232e53"/><path d="m36.8021 225c.4 6-3.8333 15.833-6 20h182.9999c-.666-6.667-2.3-21.1-3.5-25.5-1.5-5.5-15-54-18.5-63s.5-15 14-38.5 11.5-43.5 10.5-47.5c-.8-3.2-3.333-2.6667-4.5-2-.333-6.5-2-19.6-6-20-5-.5-10 10.5-13.5 16.5-2.8 4.8-20.5 15.3333-29 20-1-3.1667-3.6-10.9-6-16.5s-13-14.6667-18-18.5c.334-1.1667 1.1-4.1 1.5-6.5.5-2.9999 3-15-10.5-26-13.5-10.99997-15-3-17 1.5-1.6 3.6-13 12.1667-18.4998 16-3.5 0-12.5.3-20.5 1.5s-17.6666 5.1667-21.5 7c-1-2.8333-3-9.4-3-13 0-4.5 2.5-6-6.5-5s-16 9.5-21.5 16-7.5 27-10 41.5c-2.49995 14.5 1 26 2.5 28.5s.5 6 0 14.5c-.4 6.8 4.8334 18.833 7.5 24-4.1667 2-12.60005 11.2-13.00005 32s18.49995 28 27.99995 29c-.1666 2.167-.4 8 0 14z" fill="#fff"/><g fill="#d9d9d9"><path d="m55.3022 217c.4 4.4-3.8334 20.5-6 28h-18.5c2-5.833 6-18.1 6-20.5v-13c-2.8333 0-10.7-1.8-19.5-9-11.00003-9-9.00003-21.5-6.5-34.5 2-10.4 8.1666-16.333 11-18 .6666 1.333 2.5 4.5 4.5 6.5s12.1666 5.833 17 7.5l-8.5 1c-1.8334.333-5.5 2.6-5.5 9 0 8 5.5 13.5 13 19 6 4.4 6.1666 14.167 5.5 18.5l5.5-1c.5.333 1.6 2.1 2 6.5z"/><path d="m57.3022 94.4999c-20 .8-36.6666 20.0001-42.5 29.5001v-9c-.8333-3-2.5-9.4-2.5-11 0-2-2.99995-13-1-19.0001 2-6.0001 0-27.9999 10.5-44.9999 8.3999-13.6 22.1667-15.3334 28-14.5001v8.0001c0 1.6 2.3334 7 3.5 9.5 2-.6667 7.9-2.7 15.5-5.5s20.1667-2.8333 25.5-2.5c1.5-1 6.2998-4.3 13.4998-9.5001 9-6.5001 4-10 9.5-13.5 5.5-3.49998 13.5 5.5 20.5 13.5 5.6 6.4 3.334 19.3334 1.5 25 3.334 2.1667 11.1 7.9 15.5 13.5s7.834 16.3334 9 21l17-10c1.167 2.3334 2.8 9.4 0 19-2.8 9.6001-12.5 16.3331-17 18.5001l1-13.0001c-5.666 6.8331-20.1 21.2001-32.5 24.0001-15.5 3.5-49.9998-30.0001-74.9998-29.0001z"/><path d="m192.302 187v-25.5c4.334 13.5 13.6 42.7 16 51.5s4.667 25 5.5 32h-12.5c-.666-5-2-16.7-2-23.5 0-8.5-7-21.5-7-34.5z"/></g><path d="m133.302 38c.8-8.8-8-12.6667-12.5-13.5 0 1.5-.2 5.7-1 10.5s-7 14-10 18l7-3v5l4-2v3.5l6-1.5c2-.5 5.5-6 6.5-17z" fill="#f9b3ac"/><path d="m24.3024 48c-3.2 4.8-2.3334 13.3333-1.5 17l6.9998 4c-1.1666-3.1667-3.5-10.1-3.5-12.5s4-11.3333 6-15.5c-1.3332.3333-4.7998 2.2-7.9998 7z" fill="#f9b3ac"/><path d="m64.3022 139.5-5.5-3.5c-.1666-.333-.3-1.2.5-2 1-1 4 0 4.5 0s1.5-.5 3-.5c1.2 0 2.1667 1 2.5 1.5z" fill="#f9b3ac"/><path d="m57.8018 135.5 6.5 4m0 0 5-4.5m-5 4.5 1.5 8m0 0-2 6.5m2-6.5 5 5" stroke="#232e53" stroke-linecap="round" stroke-linejoin="round" stroke-width="2"/><path d="m30.8021 245c2.1667-4.167 6.4-14 6-20s-.1666-11.834 0-14m0 0c-9.5-1-28.39995-8.2-27.99995-29s8.83335-30 13.00005-32m14.9999 61c3.8334 0 15.1001-.3 29.5001-1.5 18-1.5 26-8.5 29-11s10.9998-3 12.4998-8c1.2-4-5.166-6.334-8.4998-7m-77.5-33.5c-2.6666-5.167-7.9-17.2-7.5-24 .5-8.5 1.5-12 0-14.5s-4.99995-14.0003-2.5-28.5003c2.5-14.5 1-25 10-41.5 4.0773-7.475 12.5-15 21.5-16 4.5-.5 6.5.5 6.5 5 0 3.6 2 10.1667 3 13m-31 106.5003c.8334 2.333 4 7.5 10 9.5l12 4m9-120.0003c3.8334-1.8333 13.5-5.8 21.5-7s17-1.5 20.5-1.5c5.4998-3.8333 15.2408-12.2727 17.4998-15.5 3.5-5 8-11.4997 18-2 12.626 11.9938 11 23 10.5 26-.4 2.4-1.166 5.3333-1.5 6.5 5 3.8333 15.6 12.9 18 18.5s5 13.3333 6 16.5m-110.4998-41.5c-2.8333 2.3333-8.7 8.4-9.5 14m119.9998 27.5c8.5-4.6667 26.2-15.2 29-20 3.5-6 8.5-17 13.5-16.5 4 .4 5.667 13.5 6 20 1.167-.6667 3.7-1.2 4.5 2 1 4 3 24-10.5 47.5003-13.5 23.5-17.5 29.5-14 38.5s17 57.5 18.5 63c1.2 4.4 2.834 18.833 3.5 25.5m-50.5-160.0003c.334 1.6666 1 6.8 1 14 0 7.2003-.666 13.3333-1 15.5003m-119.4998 49c4-.5 13.9-1.2 21.5 0 9.5 1.5 19 3 23 1.5s8.5-2 10.5 0c1.5998 1.6 1.3338 2.333 1 2.5m-56-4c-4 .333-13 1.4-17 3m66 2c5.1667-.667 16.5998-.9 20.9998 3.5s3 8.5 1.5 9.5m-12-5.5c3.834.666 11.4 3 11 7s-4.166 5.333-6 5.5m-71.9998-153.0003c-4 4.8333-11.5 16.4-9.5 24s3.8334 10.1667 4.5 10.5c-2.3333-2-7.4-5.7-9-4.5s0 5.1667 1 7c-1.3333-.5-3.9-1.2-3.5 0s1.1667 2.1667 1.5 2.5m96.4998-54c1.5 1 3.8 5.5 1 15.5s-10.5 18.1667-14 21c4.334-3.5 13-9.9 13-7.5s-2 6-3 7.5c1.167-1.6667 3.9-4.8 5.5-4s.667 3 0 4m-36.9998 43.5003c5.5-6.5 18.7998-11 19.9998-11m-61.9998 19.5c-4.5-2.5-16-7-19.5-6.5" stroke="#232e53" stroke-linecap="round" stroke-linejoin="round" stroke-width="3"/><path d="m1.30124 119c-.800005-2-.666671-3.5-.500005-4 0-1 .800005-3.4 4.000035-5 4.00003-2 13.50003-4 16.50003-4s23.5 0 29 5 6 1 10.5 1 5 2.5 6-1 9-10.5 22.5-14.5c13.4997-4 30.4997-3 32.4997-2s4-.5 6.5-1c2-.4 3.834-.1667 4.5 0 4.334-10.6667 13.2-32.3001 14-33.5001 1-1.5 3-6 5.5-4.5s1.5 3 1.5 4-14 39-14.5 40c-.5 1.0001-3 2.0001-2.5 3.5001s-4 4-7 4.5-1.5 3-1.5 8.5 2 20.5-26 25c-27.9997 4.5-28.4997-5-29.9997-8s0-11-10-10.5-6 8-6 14 2.5 10.5-20 13-27.50003-20-28.00003-22-2-4-3.5-4-2.50003-2-3.50003-4.5z" fill="#232e53"/><path d="m37.8018 145.5-22.5-31-1-1.5c.3333-.167 1.7-.7 4.5-1.5s9.8333-.667 13-.5l20.5 30.5c-.5 1.5-3 2.5-6 3.5-2.7365.912-6.5 1.167-8.5.5z" fill="#6b8ede"/><path d="m103.302 136-23.0002-29.5c.6666-.833 3.1-2.9 7.5-4.5s9.1666-1.667 11-1.5l21.0002 28c-.667.667-2.7 2.5-5.5 4.5s-8.5 2.833-11 3z" fill="#6b8ede"/></svg>

<svg width="219" height="245" viewBox="0 0 219 245" fill="none" xmlns="http://www.w3.org/2000/svg">
<path d="M159.802 32C163.002 27.6 164.135 9.5 164.302 1C165.968 7 170.202 20.1 173.802 24.5C177.402 28.9 190.635 28 196.802 27C192.302 29.5 181.902 35.6 176.302 40C170.702 44.4 169.302 61.1667 169.302 69C168.802 63.3333 167.202 50.9 164.802 46.5C162.402 42.1 152.802 41 148.302 41C150.802 39.8333 156.602 36.4 159.802 32Z" fill="#FCED90" stroke="#232E53" stroke-width="2" stroke-linecap="round" stroke-linejoin="round"/>
<path d="M0.801758 115L10.3018 100.5L11.8018 104.5L3.80176 121.5L0.801758 115Z" fill="#232E53"/>
<path d="M36.8021 225C37.2021 231 32.9688 240.833 30.8021 245H213.802C213.136 238.333 211.502 223.9 210.302 219.5C208.802 214 195.302 165.5 191.802 156.5C188.302 147.5 192.302 141.5 205.802 118C219.302 94.5 217.302 74.5 216.302 70.5C215.502 67.3 212.969 67.8333 211.802 68.5C211.469 62 209.802 48.9 205.802 48.5C200.802 48 195.802 59 192.302 65C189.502 69.8 171.802 80.3333 163.302 85C162.302 81.8333 159.702 74.1 157.302 68.5C154.902 62.9 144.302 53.8333 139.302 50C139.636 48.8333 140.402 45.9 140.802 43.5C141.302 40.5001 143.802 28.5 130.302 17.5C116.802 6.50003 115.302 14.5 113.302 19C111.702 22.6 100.302 31.1667 94.8022 35C91.3022 35 82.3022 35.3 74.3022 36.5C66.3022 37.7 56.6356 41.6667 52.8022 43.5C51.8022 40.6667 49.8022 34.1 49.8022 30.5C49.8022 26 52.3022 24.5 43.3022 25.5C34.3022 26.5 27.3022 35 21.8022 41.5C16.3022 48 14.3022 68.5 11.8022 83C9.30225 97.5 12.8022 109 14.3022 111.5C15.8022 114 14.8022 117.5 14.3022 126C13.9022 132.8 19.1356 144.833 21.8022 150C17.6355 152 9.20215 161.2 8.80215 182C8.40215 202.8 27.3021 210 36.8021 211C36.6355 213.167 36.4021 219 36.8021 225Z" fill="white"/>
<path d="M55.3022 217C55.7022 221.4 51.4688 237.5 49.3022 245H30.8022C32.8022 239.167 36.8022 226.9 36.8022 224.5V211.5C33.9689 211.5 26.1022 209.7 17.3022 202.5C6.30217 193.5 8.30217 181 10.8022 168C12.8022 157.6 18.9688 151.667 21.8022 150C22.4688 151.333 24.3022 154.5 26.3022 156.5C28.3022 158.5 38.4688 162.333 43.3022 164L34.8022 165C32.9688 165.333 29.3022 167.6 29.3022 174C29.3022 182 34.8022 187.5 42.3022 193C48.3022 197.4 48.4688 207.167 47.8022 211.5L53.3022 210.5C53.8022 210.833 54.9022 212.6 55.3022 217Z" fill="#D9D9D9"/>
<path d="M57.3022 94.4999C37.3022 95.2999 20.6356 114.5 14.8022 124V115C13.9689 112 12.3022 105.6 12.3022 104C12.3022 102 9.30225 91 11.3022 84.9999C13.3022 78.9998 11.3022 57 21.8022 40C30.2021 26.4 43.9689 24.6666 49.8022 25.4999V33.5C49.8022 35.1 52.1356 40.5 53.3022 43C55.3022 42.3333 61.2022 40.3 68.8022 37.5C76.4022 34.7 88.9689 34.6667 94.3022 35C95.8022 34 100.602 30.7 107.802 25.4999C116.802 18.9998 111.802 15.4999 117.302 11.9999C122.802 8.49992 130.802 17.4999 137.802 25.4999C143.402 31.8999 141.136 44.8333 139.302 50.4999C142.636 52.6666 150.402 58.3999 154.802 63.9999C159.202 69.5999 162.636 80.3333 163.802 84.9999L180.802 74.9999C181.969 77.3333 183.602 84.3999 180.802 93.9999C178.002 103.6 168.302 110.333 163.802 112.5L164.802 99.4999C159.136 106.333 144.702 120.7 132.302 123.5C116.802 127 82.3022 93.4999 57.3022 94.4999Z" fill="#D9D9D9"/>
<path d="M192.302 187V161.5C196.636 175 205.902 204.2 208.302 213C210.702 221.8 212.969 238 213.802 245H201.302C200.636 240 199.302 228.3 199.302 221.5C199.302 213 192.302 200 192.302 187Z" fill="#D9D9D9"/>
<path d="M133.302 38C134.102 29.2 125.302 25.3333 120.802 24.5C120.802 26 120.602 30.2 119.802 35C119.002 39.8 112.802 49 109.802 53L116.802 50V55L120.802 53V56.5L126.802 55C128.802 54.5 132.302 49 133.302 38Z" fill="#F9B3AC"/>
<path d="M24.3024 48C21.1024 52.8 21.969 61.3333 22.8024 65L29.8022 69C28.6356 65.8333 26.3022 58.9 26.3022 56.5C26.3022 54.1 30.3022 45.1667 32.3022 41C30.969 41.3333 27.5024 43.2 24.3024 48Z" fill="#F9B3AC"/>
<path d="M64.3022 139.5L58.8022 136C58.6356 135.667 58.5022 134.8 59.3022 134C60.3022 133 63.3022 134 63.8022 134C64.3022 134 65.3022 133.5 66.8022 133.5C68.0022 133.5 68.9689 134.5 69.3022 135L64.3022 139.5Z" fill="#F9B3AC"/>
<path d="M57.8018 135.5L64.3018 139.5M64.3018 139.5L69.3018 135M64.3018 139.5L65.8018 147.5M65.8018 147.5L63.8018 154M65.8018 147.5L70.8018 152.5" stroke="#232E53" stroke-width="2" stroke-linecap="round" stroke-linejoin="round"/>
<path d="M30.8021 245C32.9688 240.833 37.2021 231 36.8021 225C36.4021 219 36.6355 213.166 36.8021 211M36.8021 211C27.3021 210 8.40215 202.8 8.80215 182C9.20215 161.2 17.6355 152 21.8022 150M36.8021 211C40.6355 211 51.9022 210.7 66.3022 209.5C84.3022 208 92.3022 201 95.3022 198.5C98.3022 196 106.302 195.5 107.802 190.5C109.002 186.5 102.636 184.166 99.3022 183.5M21.8022 150C19.1356 144.833 13.9022 132.8 14.3022 126C14.8022 117.5 15.8022 114 14.3022 111.5C12.8022 109 9.30225 97.4997 11.8022 82.9997C14.3022 68.4997 12.8022 57.9997 21.8022 41.4997C25.8795 34.0247 34.3022 26.4997 43.3022 25.4997C47.8022 24.9997 49.8022 25.9997 49.8022 30.4997C49.8022 34.0997 51.8022 40.6664 52.8022 43.4997M21.8022 150C22.6356 152.333 25.8022 157.5 31.8022 159.5C37.8022 161.5 42.3022 163 43.8022 163.5M52.8022 43.4997C56.6356 41.6664 66.3022 37.6997 74.3022 36.4997C82.3022 35.2997 91.3022 34.9997 94.8022 34.9997C100.302 31.1664 110.043 22.727 112.302 19.4997C115.802 14.4997 120.302 8 130.302 17.4997C142.928 29.4935 141.302 40.4997 140.802 43.4997C140.402 45.8997 139.636 48.833 139.302 49.9997C144.302 53.833 154.902 62.8997 157.302 68.4997C159.702 74.0997 162.302 81.833 163.302 84.9997M52.8022 43.4997C49.9689 45.833 44.1022 51.8997 43.3022 57.4997M163.302 84.9997C171.802 80.333 189.502 69.7997 192.302 64.9997C195.802 58.9997 200.802 47.9997 205.802 48.4997C209.802 48.8997 211.469 61.9997 211.802 68.4997C212.969 67.833 215.502 67.2997 216.302 70.4997C217.302 74.4997 219.302 94.4997 205.802 118C192.302 141.5 188.302 147.5 191.802 156.5C195.302 165.5 208.802 214 210.302 219.5C211.502 223.9 213.136 238.333 213.802 245M163.302 84.9997C163.636 86.6663 164.302 91.7997 164.302 98.9997C164.302 106.2 163.636 112.333 163.302 114.5M43.8022 163.5C47.8022 163 57.7022 162.3 65.3022 163.5C74.8022 165 84.3022 166.5 88.3022 165C92.3022 163.5 96.8022 163 98.8022 165C100.402 166.6 100.136 167.333 99.8022 167.5M43.8022 163.5C39.8022 163.833 30.8022 164.9 26.8022 166.5M92.8022 168.5C97.9689 167.833 109.402 167.6 113.802 172C118.202 176.4 116.802 180.5 115.302 181.5M103.302 176C107.136 176.666 114.702 179 114.302 183C113.902 187 110.136 188.333 108.302 188.5M36.3022 35.4997C32.3022 40.333 24.8022 51.8997 26.8022 59.4997C28.8022 67.0997 30.6356 69.6664 31.3022 69.9997C28.9689 67.9997 23.9022 64.2997 22.3022 65.4997C20.7022 66.6997 22.3022 70.6664 23.3022 72.4997C21.9689 71.9997 19.4022 71.2997 19.8022 72.4997C20.2022 73.6997 20.9689 74.6664 21.3022 74.9997M117.802 20.9997C119.302 21.9997 121.602 26.4997 118.802 36.4997C116.002 46.4997 108.302 54.6664 104.802 57.4997C109.136 53.9997 117.802 47.5997 117.802 49.9997C117.802 52.3997 115.802 55.9997 114.802 57.4997C115.969 55.833 118.702 52.6997 120.302 53.4997C121.902 54.2997 120.969 56.4997 120.302 57.4997M83.3022 101C88.8022 94.5 102.102 90 103.302 90M41.3022 109.5C36.8022 107 25.3022 102.5 21.8022 103" stroke="#232E53" stroke-width="3" stroke-linecap="round" stroke-linejoin="round"/>
<path d="M1.30124 119C0.501235 117 0.634569 115.5 0.801235 115C0.801235 114 1.60124 111.6 4.80127 110C8.8013 108 18.3013 106 21.3013 106C24.3013 106 44.8013 106 50.3013 111C55.8013 116 56.3013 112 60.8013 112C65.3013 112 65.8013 114.5 66.8013 111C67.8013 107.5 75.8013 100.5 89.3013 96.5C102.801 92.5 119.801 93.5 121.801 94.5C123.801 95.5 125.801 94 128.301 93.5C130.301 93.1 132.135 93.3333 132.801 93.5C137.135 82.8333 146.001 61.1999 146.801 59.9999C147.801 58.4999 149.801 53.9999 152.301 55.4999C154.801 56.9999 153.801 58.4999 153.801 59.4999C153.801 60.4999 139.801 98.4999 139.301 99.4999C138.801 100.5 136.301 101.5 136.801 103C137.301 104.5 132.801 107 129.801 107.5C126.801 108 128.301 110.5 128.301 116C128.301 121.5 130.301 136.5 102.301 141C74.3013 145.5 73.8013 136 72.3013 133C70.8013 130 72.3013 122 62.3013 122.5C52.3013 123 56.3013 130.5 56.3013 136.5C56.3013 142.5 58.8013 147 36.3013 149.5C13.8013 152 8.80127 129.5 8.30127 127.5C7.80127 125.5 6.30127 123.5 4.80127 123.5C3.30127 123.5 2.30124 121.5 1.30124 119Z" fill="#232E53"/>
<path d="M37.8018 145.5L15.3018 114.5L14.3018 113C14.6351 112.833 16.0018 112.3 18.8018 111.5C21.6018 110.7 28.6351 110.833 31.8018 111L52.3018 141.5C51.8018 143 49.3018 144 46.3018 145C43.5653 145.912 39.8018 146.167 37.8018 145.5Z" fill="#6B8EDE"/>
<path d="M103.302 136L80.3018 106.5C80.9684 105.667 83.4018 103.6 87.8018 102C92.2018 100.4 96.9684 100.333 98.8018 100.5L119.802 128.5C119.135 129.167 117.102 131 114.302 133C111.502 135 105.802 135.833 103.302 136Z" fill="#6B8EDE"/>
</svg>
